image/logo/social_icon_viber.svg

<svg width="48" height="48" viewBox="0 0 48 48" fill="none" xmlns="http://www.w3.org/2000/svg">
<path fill-rule="evenodd" clip-rule="evenodd" d="M15.5359 15.6108C16.8399 14.3069 18.4379 13.4536 20.0818 13.1834C21.5206 12.947 26.2747 12.9366 27.725 13.1667C31.0843 13.6995 33.8467 16.2064 34.7363 19.5297C35.1006 20.8905 35.0834 25.908 34.7097 27.3354C34.145 29.4916 32.9312 31.097 30.8386 32.4554C29.3484 33.4228 27.8138 33.7389 24.6088 33.7389H22.0321C22.0321 33.7389 20.7722 33.6445 19.396 33.3208L16 34L17.0318 32.4523C16.0984 31.8634 14.5781 30.2703 14.0458 29.2973C13.2228 27.7935 12.9976 26.5151 13 23.3627C13.0032 19.1687 13.5019 17.6445 15.5359 15.6108ZM30.7618 22.7753C31.0808 20.4106 29.6761 17.9332 27.4614 16.9544C25.9108 16.269 24.2865 16.2054 24.4077 16.8348C24.4513 17.061 24.741 17.1733 25.4902 17.2542C28.1672 17.5436 30.0294 19.6704 29.9425 22.3396C29.9209 23.0019 29.9548 23.5952 30.0178 23.6579C30.2991 23.9379 30.6634 23.5059 30.7618 22.7753ZM22.0073 21.7768C23.0242 21.1347 22.9171 20.5195 21.5312 19.0442C20.0549 17.4728 19.57 17.3996 18.307 18.5575C17.1779 19.5929 16.9568 20.3591 17.3721 21.7981C18.4968 25.694 23.8335 30.5964 27.0017 30.6438C27.8708 30.657 27.9761 30.6032 28.9414 29.6552C30.2913 28.329 30.2775 28.0559 28.78 26.4611C27.8119 25.4302 27.5017 25.2095 27.0198 25.2095C26.698 25.2095 26.3267 25.3426 26.1943 25.5053C25.0752 26.8826 24.6966 26.9708 23.4051 26.1561C22.4592 25.5594 21.7297 24.7005 21.2998 23.6772C20.9509 22.8461 21.1466 22.3201 22.0073 21.7768ZM29.0188 21.0835C28.7334 19.9003 27.4107 18.4854 26.3047 18.18C25.3232 17.9089 24.6439 17.9273 24.39 18.2315C24.0826 18.6 24.4656 18.8371 25.5558 18.9532C27.089 19.1166 28.058 20.1045 28.2548 21.7049C28.3434 22.4239 28.464 22.718 28.6879 22.7608C29.1482 22.8489 29.2815 22.1729 29.0188 21.0835ZM27.4959 21.8703C27.5684 21.2057 26.8895 20.2243 26.1423 19.9139C25.4408 19.6224 25.0587 19.5794 24.8666 19.7705C24.5708 20.0646 24.7936 20.3452 25.4869 20.5517C26.2288 20.7727 26.7929 21.4651 26.7929 22.1545C26.7929 22.6507 27.4392 22.3894 27.4959 21.8703Z" fill="white"/>
</svg>

<svg xmlns="http://www.w3.org/2000/svg" width="48" height="48" fill="none"><path fill="#fff" fill-rule="evenodd" d="M15.536 15.61c1.304-1.303 2.902-2.156 4.546-2.427 1.439-.236 6.193-.246 7.643-.016 3.36.533 6.122 3.04 7.011 6.363.365 1.36.347 6.378-.026 7.805-.565 2.157-1.779 3.762-3.871 5.12-1.49.968-3.025 1.284-6.23 1.284h-2.577s-1.26-.094-2.636-.418L16 34l1.032-1.548c-.934-.589-2.454-2.182-2.986-3.155-.823-1.503-1.048-2.782-1.046-5.934.003-4.194.502-5.718 2.536-7.752Zm15.226 7.165c.319-2.364-1.086-4.842-3.3-5.82-1.551-.686-3.175-.75-3.054-.12.043.226.333.338 1.082.42 2.677.289 4.54 2.415 4.453 5.085-.022.662.012 1.255.075 1.318.281.28.645-.152.744-.883Zm-8.755-.998c1.017-.642.91-1.258-.476-2.733-1.476-1.571-1.961-1.644-3.224-.486-1.13 1.035-1.35 1.801-.935 3.24 1.125 3.896 6.462 8.798 9.63 8.846.869.013.974-.04 1.94-.989 1.35-1.326 1.335-1.6-.162-3.194-.968-1.03-1.278-1.252-1.76-1.252-.322 0-.693.134-.826.296-1.119 1.378-1.497 1.466-2.789.651a5.392 5.392 0 0 1-2.105-2.479c-.35-.83-.153-1.357.707-1.9Zm7.012-.694c-.286-1.183-1.608-2.598-2.714-2.903-.982-.271-1.661-.253-1.915.052-.307.368.076.605 1.166.721 1.533.164 2.502 1.152 2.699 2.752.088.719.209 1.013.433 1.056.46.088.594-.588.33-1.677Zm-1.523.787c.072-.664-.606-1.646-1.354-1.956-.701-.292-1.083-.335-1.275-.144-.296.295-.073.575.62.782.742.22 1.306.913 1.306 1.602 0 .497.646.235.703-.284Z" clip-rule="evenodd"/></svg>
